views/img/cartasi.svg

<?xml version="1.0" encoding="UTF-8" standalone="no"?>
<svg width="32px" height="32px" viewBox="0 0 32 32" version="1.1" xmlns="http://www.w3.org/2000/svg" xmlns:xlink="http://www.w3.org/1999/xlink">
    <!-- Generator: Sketch 46.2 (44496) - http://www.bohemiancoding.com/sketch -->
    <title>icon-32x32-cartasi</title>
    <desc>Created with Sketch.</desc>
    <defs></defs>
    <g id="Icons" stroke="none" stroke-width="1" fill="none" fill-rule="evenodd">
        <g transform="translate(-405.000000, -429.000000)" id="icon-32x32-cartasi">
            <g transform="translate(405.000000, 429.000000)">
                <path d="M0,7.99240541 C0,3.57832179 3.57766074,0 7.99240541,0 L24.0075946,0 C28.4216782,0 32,3.57766074 32,7.99240541 L32,24.0075946 C32,28.4216782 28.4223393,32 24.0075946,32 L7.99240541,32 C3.57832179,32 0,28.4223393 0,24.0075946 L0,7.99240541 Z" id="Mask" fill="#FF6E28"></path>
                <path d="M15.1961104,8.1168931 C15.4801179,8.03699906 15.7756301,8 16.0701346,8 L16.0907927,8 C16.4731363,8.0023071 16.8314627,8.06758951 17.140831,8.17995386 C17.3907442,8.27078527 17.6085784,8.39246347 17.7814854,8.53661454 C17.853453,8.59651371 17.920382,8.66393233 17.9791653,8.7375032 C18.0221611,8.79125011 18.0607062,8.84824404 18.0935409,8.90822866 C18.1827236,9.07117833 18.2289945,9.25497736 18.2053972,9.44971375 C18.1871744,9.59958985 18.1299026,9.74263009 18.0400481,9.87464753 C17.9716915,9.97496368 17.8846081,10.0690421 17.7814854,10.155003 C17.7002804,10.2226779 17.6092502,10.2853969 17.5095705,10.3423054 C17.1305859,10.5556695 16.6300038,10.6854653 16.0812194,10.6854653 C14.8985827,10.6854653 13.9398265,10.0828847 13.9398265,9.3396565 C13.9398265,8.9462531 14.2083824,8.59232675 14.636493,8.34623601 C14.6766337,8.32342134 14.7182019,8.30163206 14.7610297,8.28078271 C14.8944679,8.21592754 15.0403345,8.16072802 15.1961104,8.1168931 Z M8.29402322,16.1602153 C8.29402322,13.1621806 13.5278394,12.1442365 16.1877852,12.1442365 C17.6921347,12.1442365 20.8798709,12.467487 22.8109035,14.153294 C23.0598089,14.375972 23.2869645,14.6219773 23.4858201,14.893617 C23.5384732,14.9653935 23.5890269,15.0389644 23.6374811,15.1143297 C23.7539561,15.2955652 23.8585065,15.4873109 23.9492007,15.6903358 C24.0292301,15.8695206 24.0077322,15.9994019 23.9331613,16.0699821 C23.9212367,16.0813467 23.9078845,16.0911732 23.8933566,16.0994617 C23.8614456,16.1175767 23.8239083,16.1280868 23.7827599,16.1306503 C23.6618342,16.1379134 23.5528331,16.0831411 23.4620549,16.0058105 C23.4441679,15.98761 23.4266169,15.9679569 23.4096537,15.9466803 C23.3228223,15.8379048 23.2190278,15.7318636 23.1002015,15.6288986 C22.1129773,14.7351107 19.9958536,14.0719474 18.0561715,13.9853029 C15.9427427,13.8908827 14.0400101,14.4809878 14.0400101,16.2031103 L14.0400101,18.4246774 C14.0400101,18.5320858 14.0367351,18.6321456 14.030101,18.7251132 C13.9860974,19.3430744 13.7946317,19.6522259 13.4355495,19.7739896 C13.268185,19.8308126 13.0644587,19.8468769 12.8223554,19.8346578 C12.1648218,19.8011621 10.4911763,19.4782534 9.36060482,18.5014953 C9.35800156,18.4992737 9.3553983,18.497052 9.35287901,18.4948304 C8.73582196,17.9406135 8.29402322,17.1831154 8.29402322,16.1602153 Z M18.2457058,15.5322567 C18.4214679,15.3375203 18.6810383,15.2630949 19.0318909,15.2630949 C19.0788336,15.2630949 19.1272878,15.2643767 19.1775056,15.2669401 C20.2109166,15.3195762 23.754376,16.0870717 23.754376,18.9840212 C23.754376,21.9819704 18.5204759,23 15.86053,23 C13.9710657,23 9.42619023,22.4900453 8.05082816,19.4111766 C7.84080371,18.9412117 8.32988105,18.8109032 8.63857753,19.1975562 C10.051477,20.9668461 15.9650804,22.0365718 17.5612998,20.074169 C17.5682698,20.0661369 17.5752399,20.0578484 17.5821259,20.0497308 C17.6341911,19.9873537 17.6818896,19.9219004 17.7248015,19.8532855 C17.8988841,19.5748953 17.9956247,19.2441254 17.9956247,18.8557635 L17.9956247,16.6341964 C17.9956247,16.1015124 18.0762418,15.751004 18.2457058,15.5322567 Z" id="Combined-Shape" fill="#FFFFFF"></path>
            </g>
        </g>
    </g>
</svg>

<?xml version="1.0" encoding="UTF-8" standalone="no"?>
<svg
   xmlns:dc="http://purl.org/dc/elements/1.1/"
   xmlns:cc="http://creativecommons.org/ns#"
   xmlns:rdf="http://www.w3.org/1999/02/22-rdf-syntax-ns#"
   xmlns:svg="http://www.w3.org/2000/svg"
   xmlns="http://www.w3.org/2000/svg"
   xmlns:sodipodi="http://sodipodi.sourceforge.net/DTD/sodipodi-0.dtd"
   xmlns:inkscape="http://www.inkscape.org/namespaces/inkscape"
   width="24"
   height="24"
   viewBox="0 0 24 24"
   version="1.1"
   id="svg14"
   sodipodi:docname="cartasi.svg"
   inkscape:version="0.92.3 (2405546, 2018-03-11)">
  <metadata
     id="metadata18">
    <rdf:RDF>
      <cc:Work
         rdf:about="">
        <dc:format>image/svg+xml</dc:format>
        <dc:type
           rdf:resource="http://purl.org/dc/dcmitype/StillImage" />
        <dc:title>icon-32x32-cartasi</dc:title>
      </cc:Work>
    </rdf:RDF>
  </metadata>
  <sodipodi:namedview
     pagecolor="#ffffff"
     bordercolor="#666666"
     borderopacity="1"
     objecttolerance="10"
     gridtolerance="10"
     guidetolerance="10"
     inkscape:pageopacity="0"
     inkscape:pageshadow="2"
     inkscape:window-width="1853"
     inkscape:window-height="1025"
     id="namedview16"
     showgrid="false"
     inkscape:zoom="20.85965"
     inkscape:cx="23.121176"
     inkscape:cy="12.953191"
     inkscape:window-x="67"
     inkscape:window-y="27"
     inkscape:window-maximized="1"
     inkscape:current-layer="svg14" />
  <!-- Generator: Sketch 46.2 (44496) - http://www.bohemiancoding.com/sketch -->
  <title
     id="title2">icon-32x32-cartasi</title>
  <desc
     id="desc4">Created with Sketch.</desc>
  <defs
     id="defs6" />
  <g
     id="Icons"
     style="fill:none;fill-rule:evenodd;stroke:none;stroke-width:1"
     transform="scale(0.75)">
    <g
       transform="translate(-405,-429)"
       id="icon-32x32-cartasi">
      <g
         transform="translate(405,429)"
         id="g10">
        <path
           d="M 0,7.9924054 C 0,3.5783218 3.5776607,0 7.9924054,0 H 24.007595 C 28.421678,0 32,3.5776607 32,7.9924054 V 24.007595 C 32,28.421678 28.422339,32 24.007595,32 H 7.9924054 C 3.5783218,32 0,28.422339 0,24.007595 Z"
           id="Mask"
           inkscape:connector-curvature="0"
           style="fill:#ff6e28" />
        <path
           d="M 15.19611,8.1168931 C 15.480118,8.0369991 15.77563,8 16.070135,8 h 0.02066 c 0.382343,0.00231 0.74067,0.06759 1.050038,0.1799539 0.249913,0.090831 0.467747,0.2125096 0.640654,0.3566606 0.07197,0.059899 0.138897,0.1273178 0.19768,0.2008887 0.043,0.053747 0.08154,0.1107408 0.114376,0.1707255 0.08918,0.1629496 0.135453,0.3467487 0.111856,0.5414851 -0.01822,0.149876 -0.07549,0.2929163 -0.165349,0.4249337 -0.06836,0.1003162 -0.15544,0.1943945 -0.258563,0.2803555 -0.08121,0.06767 -0.172235,0.130394 -0.271915,0.187302 -0.378984,0.213365 -0.879566,0.34316 -1.428351,0.34316 -1.182636,0 -2.141392,-0.60258 -2.141392,-1.3458085 0,-0.3934034 0.268555,-0.7473297 0.696666,-0.9934205 0.04014,-0.022815 0.08171,-0.044604 0.124537,-0.065453 0.133438,-0.064855 0.279305,-0.1200547 0.43508,-0.1638896 z M 8.2940232,16.160215 c 0,-2.998034 5.2338158,-4.015978 7.8937618,-4.015978 1.50435,0 4.692086,0.32325 6.623118,2.009057 0.248906,0.222678 0.476061,0.468683 0.674917,0.740323 0.05265,0.07178 0.103207,0.145347 0.151661,0.220713 0.116475,0.181235 0.221025,0.372981 0.31172,0.576006 0.08003,0.179185 0.05853,0.309066 -0.01604,0.379646 -0.01192,0.01137 -0.02528,0.02119 -0.0398,0.02948 -0.03191,0.01812 -0.06945,0.02863 -0.110597,0.03119 -0.120926,0.0073 -0.229927,-0.04751 -0.320705,-0.12484 -0.01789,-0.0182 -0.03544,-0.03785 -0.0524,-0.05913 -0.08683,-0.108775 -0.190626,-0.214816 -0.309453,-0.317781 -0.987224,-0.893788 -3.104347,-1.556952 -5.044029,-1.643596 -2.113429,-0.09442 -4.016162,0.495685 -4.016162,2.217807 v 2.221567 c 0,0.107409 -0.0033,0.207469 -0.0099,0.300436 -0.044,0.617961 -0.235469,0.927113 -0.594551,1.048877 -0.167365,0.05682 -0.371091,0.07289 -0.613195,0.06067 -0.657533,-0.0335 -2.331179,-0.356405 -3.4617502,-1.333163 -0.0026,-0.0022 -0.00521,-0.0044 -0.00773,-0.0067 C 8.735822,17.940614 8.2940232,17.183115 8.2940232,16.160215 Z m 9.9516828,-0.627958 c 0.175762,-0.194737 0.435332,-0.269162 0.786185,-0.269162 0.04694,0 0.0954,0.0013 0.145615,0.0038 1.033411,0.05264 4.57687,0.820132 4.57687,3.717081 C 23.754376,21.98197 18.520476,23 15.86053,23 13.971066,23 9.4261902,22.490045 8.0508282,19.411177 7.8408037,18.941212 8.329881,18.810903 8.6385775,19.197556 c 1.4128995,1.76929 7.3265025,2.839016 8.9227225,0.876613 0.007,-0.008 0.01394,-0.01632 0.02083,-0.02444 0.05207,-0.06238 0.09976,-0.127831 0.142676,-0.196446 0.174082,-0.27839 0.270823,-0.60916 0.270823,-0.997522 v -2.221567 c 0,-0.532684 0.08062,-0.883192 0.250081,-1.101939 z"
           id="Combined-Shape"
           inkscape:connector-curvature="0"
           style="fill:#ffffff" />
      </g>
    </g>
  </g>
</svg>
